icons/2_Variations/Expo bg.var.svg

<svg xmlns="http://www.w3.org/2000/svg" viewBox="0 0 1024 1024">
   <circle cx="512" cy="512" r="512" style="fill:#4630eb"/>
   <path d="M498.62 441c4.18-6.17 8.77-7 12.49-7s9.91.79 14.1 7c33 45.33 87.48 135.63 127.67 202.25 26.2 43.44 46.33 76.8 50.46 81 15.51 15.94 36.77 6 49.12-12.07C764.62 694.46 768 682 768 668.62c0-9.08-176.21-336.8-194-364.07-17.06-26.24-22.62-32.87-51.83-32.87h-21.82c-29.12 0-33.33 6.63-50.39 32.87-17.75 27.27-194 355-194 364.07 0 13.34 3.38 25.84 15.54 43.64 12.35 18.08 33.61 28 49.12 12.07 4.13-4.25 24.26-37.61 50.46-81 40.23-66.67 94.53-156.97 127.54-202.33Z" style="fill:#fff"/>
</svg>

<svg width="1024" height="1024" viewBox="0 0 1024 1024" fill="none" xmlns="http://www.w3.org/2000/svg">
<g clip-path="url(#clip0_3_80)">
<path d="M512 1024C794.77 1024 1024 794.77 1024 512C1024 229.23 794.77 0 512 0C229.23 0 0 229.23 0 512C0 794.77 229.23 1024 512 1024Z" fill="#ABABFF"/>
<path d="M498.62 441C502.8 434.83 507.39 434 511.11 434C514.83 434 521.02 434.79 525.21 441C558.21 486.33 612.69 576.63 652.88 643.25C679.08 686.69 699.21 720.05 703.34 724.25C718.85 740.19 740.11 730.25 752.46 712.18C764.62 694.46 768 682 768 668.62C768 659.54 591.79 331.82 574 304.55C556.94 278.31 551.38 271.68 522.17 271.68H500.35C471.23 271.68 467.02 278.31 449.96 304.55C432.21 331.82 255.96 659.55 255.96 668.62C255.96 681.96 259.34 694.46 271.5 712.26C283.85 730.34 305.11 740.26 320.62 724.33C324.75 720.08 344.88 686.72 371.08 643.33C411.31 576.66 465.61 486.36 498.62 441Z" fill="white"/>
</g>
<defs>
<clipPath id="clip0_3_80">
<rect width="1024" height="1024" fill="white"/>
</clipPath>
</defs>
</svg>
